X: 153
T: S.r Allex McDonald's Reel
B: 204 Favourite Country Dances
N: Published by Straight & Skillern, London ca.1775
F: http://imslp.org/wiki/204_Favourite_Country_Dances_(Various) p.77 #153
Z: 2014 John Chambers <jc:trillian.mit.edu>
N: The lower left corner is faded to illegibility.  The last line is probably "Right and Left at top".
M: C|
L: 1/8
K: D
% - - - - - - - - - - - - - - - - - - - - - - - - -
|:\
FAAf/g/ afed | gfed BdBA |\
FAAf/g/ afed | e/f/g f/g/a Te2d2 :|\
|:\
FAAB A>BAF | G/G/G G2 G>ABG |
F>AAB ABAF | GBAF E2D2 :|\
|:\
f/g/a a>b a>baf | g/g/g g2 g>aba |\
f/g/a a>b a>baf | gafg Te2d2 :|
% - - - - - - - - - - - - - - - - - - - - - - - - -
%%begintext align
%% The 1st Cu foot it Cast off two Cu. .| foot it and Cast
%% [ILLEGIBLE] :| Cross over two Cu. Lead up to the top &
%% [ILLEGIBLE] :|: hands round four with the third Cu. .||.
%% [ILLEGIBLE] Left at top :||:
%%endtext

%%sep 1 1 500
%%sep 1 1 500
